X:200
T: Men of Wrexhams Hornpipe, The
M: 4/4
L: 1/8
R: hp 32
K:G
|: Bc | d2 g2 gdBG | c2 e2 e2 ge | dBdB edcB | ABcB AGFD |
d2 g2 gdBG | c2 e2 e2 ge | dBdB cAFA |G2 B2 G2 :|
|: Bc | dBdB d2 g2 | ecec e2 g2 | dBdB edcB | ABcB AGFD |
dBdB d2 g2 | ecec e2 g2 | dBdB cAFA |G2 B2 G2 :|

